X:1
T:Title
%%score { ( 1 4 5 ) | ( 2 3 ) }
L:1/8
M:3/4
K:C
V:1 treble nm="Grand Piano"
V:4 treble 
V:5 treble 
V:2 bass 
V:3 bass 
V:1
 z2 z2 z z/[Q:1/4=106] c/ | [GB]>A [EG]>[DF] [CE]>D | C6[K:bass] | C>D[K:treble] E>F [EG]>^G | %4
 [CF]6[K:bass] | D>_E [DF]>G [F^G]2 | [_EG]6[K:bass] | [DG]>F D>F E>D |[M:4/4] C6[K:bass] z2 | %9
 [EG]6[K:treble] z2 | [DF]6[K:bass][K:treble] z2 | [GB]6[K:bass][K:treble] z2 | %12
[M:3/4] [Gc]6[K:bass] | z6[K:treble] | [FA]4- [FA]>A | B>c [Gd]2 [GB]2 | [EG]4- [EG]>E | %17
 F>G [FA]>F G>A | [GB]4- [GB]>G | A>B [Fc]>e [Bd]>B | [Gc]6[K:bass] |] %21
V:2
 z2 z2 z z/ A/ | z z/ F/ [B,,F,G,]2 z z/ B,/ | C,,2 [C,E,]2 [C,E,]2 | z z/ B,/ C>D z z/ F/ | %4
 F,,2 C,2 z z/ D/ | z z/ C/ z z/ _E/ z z/[K:treble] _B/ | C,,2 C,2 z z/ A/ | %7
 G,,2 z z/ D/ [B,,F,G,]2 |[M:4/4] C,,2 C,2 z z/[K:treble] C/ E>F | C,,2 C,2 z z/[K:treble] F/ E>C | %10
 G,,2 B,,2 z z/ D/ E>F | G,,2 B,,2 z z/[K:treble] c/ B>G |[M:3/4][K:bass] C,,2 C,2 z z/ G/ | %13
 c>[K:treble]d z z/ d/[K:bass] z z/ B/ | F,,6 | [C,F,A,]2 z z/[K:treble] c/[K:bass] z z/ A/ | %16
 C,,6 | z z/ E/ F,,2 z z/ F/ | G,,6 | [B,,F,G,]2 [C,E,G,]2 [B,,F,G,]2 | [C,E,G,]6 |] %21
V:3
 x6 | G,,2 z2 [B,,F,G,]2 | x6 | C,,2 [C,E,G,]2 [C,E,G,]2 | z2 z2 C,2 | %5
 G,,2 [B,,F,G,]2 F,2[K:treble] | z2 z2 C,2 | z2 [B,,F,G,]2 z2 |[M:4/4] z4 C,4[K:treble] | %9
 z4 C,4[K:treble] | z4 B,,4 | z4 B,,4[K:treble] |[M:3/4][K:bass] z2 z2 C,2- | %13
 C,2[K:treble] C,,2[K:bass] [C,E,G,]2 | x6 | z2 G,,2[K:treble][K:bass] [B,,F,G,]2 | x6 | %17
 [C,E,G,]2 z2 [C,F,A,]2 | x6 | x6 | x6 |] %21
V:4
 x6 | x6 | z2[K:bass] G,2 G,>G, | x2[K:treble] x4 | z2[K:bass] [F,^G,]2 [F,G,]2 | x6 | %6
 z2[K:bass] [_E,G,]2 [E,G,]2 | x6 |[M:4/4] z2[K:bass] [E,G,]2 [E,G,]4 | %9
 z2 [E,G,]2 z z/[K:treble] A/ G>E | z2[K:bass] [F,G,]2 z z/[K:treble] F/ G>A | %11
 z2[K:bass] [F,G,]2 z z/[K:treble] e/ d>B |[M:3/4] z2[K:bass] [E,G,]2 [E,G,]2- | %13
 [E,G,]2[K:treble] [ce]2 [Gc]2 | x6 | x6 | x6 | x6 | x6 | x6 | z2 z2[K:bass] C,,2 |] %21
V:5
 x6 | x6 | x2[K:bass] x4 | x2[K:treble] x4 | x2[K:bass] x4 | x6 | x2[K:bass] x4 | x6 | %8
[M:4/4] x2[K:bass] x6 | z4 [E,G,]4[K:treble] | z4[K:bass] [F,G,]4[K:treble] | %11
 z4[K:bass] [F,G,]4[K:treble] |[M:3/4] x2[K:bass] x4 | x2[K:treble] x4 | x6 | x6 | x6 | x6 | x6 | %19
 x6 | x4[K:bass] x2 |] %21

